X: 168
T: Suserl (F)
M: 23/4
L: 1/8
M: 23/4
L: 1/8
K: F
"A"|: "F"[AF][cA] [cA][BG] | [A2F2] z2 \
| [AF][cA] [cA][AF] [dB][cA] \
| "C7"[c2A2] [BG][AF] | [G2E2] z2 \
| "Bb"[dB][dB] [dB][fd] [ec][dB] \
| "F"[d2B2] [cA][BG] | [A2F2]  z2 |
| "C7"[cA][cA] [c2A2] [B2G2] | "F"[A2F2] z2 "fine"z2 :| \
"B"|: "C7"[GE][BG] [BG][AF] | [G2E2] z2 \
| [GE][BG] [BG][GE] [cA][BG] \
| "F"[AF][cA] [cA][BG] | [A2F2] "d.C."z2 :|
%%sep 2 1 500
